build/finance/CashSolid.svg

<svg xmlns="http://www.w3.org/2000/svg" fill="none" viewBox="0 0 24 24" focusable="false"><path d="M0 0H24V24H0z"/><path fill="#74767B" fill-rule="evenodd" d="M7.1 3L16.9 3C17.4124 3 17.7511 3.53234 17.5341 3.99647L15.6591 8.00688C16.7948 9.80719 19 13.6187 19 16.0715C19 19.6965 16 21.0715 12 21.0715C8 21.0715 5 19.6965 5 16.0715C5 13.6187 7.20519 9.80719 8.3409 8.00688L6.46589 3.99647C6.24889 3.53234 6.58765 3 7.1 3ZM11.4115 14.2394L12.838 14.2394C14.0839 14.2394 15.0939 13.2294 15.0939 11.9835C15.0939 10.7377 14.0839 9.72766 12.838 9.72766L11.0615 9.72766C10.5407 9.72766 10.1115 10.1477 10.1115 10.6763L10.1115 12.9394L9.56438 12.9394C9.20539 12.9394 8.91438 13.2304 8.91438 13.5894C8.91438 13.9484 9.20539 14.2394 9.56438 14.2394L10.1115 14.2394L10.1115 15.1869L9.55588 15.1869C9.1969 15.1869 8.90588 15.4779 8.90588 15.8369C8.90588 16.1959 9.1969 16.4869 9.55588 16.4869L10.1115 16.4869L10.1115 17.1223C10.1115 17.4813 10.4025 17.7723 10.7615 17.7723C11.1204 17.7723 11.4115 17.4813 11.4115 17.1223L11.4115 16.4869L13.453 16.4869C13.812 16.4869 14.103 16.1959 14.103 15.8369C14.103 15.4779 13.812 15.1869 13.453 15.1869L11.4115 15.1869L11.4115 14.2394ZM11.4115 11.0277L11.4115 12.9394L12.838 12.9394C13.3659 12.9394 13.7939 12.5115 13.7939 11.9835C13.7939 11.4556 13.3659 11.0277 12.838 11.0277L11.4115 11.0277Z"/></svg>

<svg xmlns="http://www.w3.org/2000/svg" fill="none" viewBox="0 0 24 24" focusable="false"><path fill="#74767B" fill-rule="evenodd" d="M7.1 3h9.8c.51 0 .85.53.63.99L15.65 8C16.79 9.8 19 13.61 19 16.07c0 3.62-3 5-7 5s-7-1.38-7-5C5 13.61 7.2 9.8 8.34 8L6.46 3.99c-.22-.46.12-.99.64-.99m4.31 11.23h1.42a2.256 2.256 0 1 0 0-4.51h-1.77a.95.95 0 0 0-.95.95v2.26h-.55c-.36 0-.65.3-.65.65 0 .36.29.65.65.65h.55v.95h-.56c-.36 0-.65.29-.65.65s.29.65.65.65h.56v.64c0 .36.29.65.65.65s.65-.29.65-.65v-.64h2.04c.36 0 .65-.29.65-.65s-.29-.65-.65-.65h-2.04zm0-3.21v1.91h1.42c.53 0 .96-.42.96-.95a.96.96 0 0 0-.96-.96z"/></svg>
